assets/images/icons/key-04.svg

<svg width="40" height="40" viewBox="0 0 40 40" fill="none" xmlns="http://www.w3.org/2000/svg">
<g clip-path="url(#clip0_379_9303)">
<path opacity="0.1" d="M0.278944 28.9522C-0.0736318 25.9401 -0.122607 22.9843 0.310078 20.3101C0.84212 17.0218 2.23117 13.3636 3.74867 10.092C6.71454 3.69799 12.0239 1.46106 18.489 0.452582C27.5008 -0.953153 39.9215 0.452613 40 11.3589C39.5479 15.2591 36.5646 26.1018 26.4939 26.9292C23.1642 27.2028 21.9185 30.5473 20.4515 34.3758C16.5911 44.4503 1.56969 39.9794 0.278944 28.9522Z" fill="#015637"/>
<path d="M15.5188 24.4625C14.0626 25.6062 13.1251 27.3812 13.1251 29.375V31.25H9.37506C8.33756 31.25 7.50006 30.4125 7.50006 29.375V28.125C7.50006 25.7063 9.45631 23.75 11.8751 23.75H13.1251C14.0126 23.75 14.8313 24.0125 15.5188 24.4625Z" fill="#7FB51F"/>
<path d="M27.5001 23.75C29.0534 23.75 30.3126 22.4908 30.3126 20.9375C30.3126 19.3842 29.0534 18.125 27.5001 18.125C25.9468 18.125 24.6876 19.3842 24.6876 20.9375C24.6876 22.4908 25.9468 23.75 27.5001 23.75Z" fill="#7FB51F"/>
<path d="M12.5001 23.75C14.0534 23.75 15.3126 22.4908 15.3126 20.9375C15.3126 19.3842 14.0534 18.125 12.5001 18.125C10.9468 18.125 9.68756 19.3842 9.68756 20.9375C9.68756 22.4908 10.9468 23.75 12.5001 23.75Z" fill="#7FB51F"/>
<path d="M32.5 28.125V29.375C32.5 30.4125 31.6625 31.25 30.625 31.25H26.875V29.375C26.875 27.3812 25.9375 25.6062 24.4813 24.4625C25.1688 24.0125 25.9875 23.75 26.875 23.75H28.125C30.5438 23.75 32.5 25.7063 32.5 28.125Z" fill="#7FB51F"/>
<path d="M20.0001 24.375C21.8985 24.375 23.4376 22.836 23.4376 20.9375C23.4376 19.039 21.8985 17.5 20.0001 17.5C18.1016 17.5 16.5626 19.039 16.5626 20.9375C16.5626 22.836 18.1016 24.375 20.0001 24.375Z" fill="#7FB51F"/>
<path d="M20.6251 24.375H19.3751C16.6182 24.375 14.3751 26.6181 14.3751 29.375V31.25C14.3751 32.2838 15.2163 33.125 16.2501 33.125H23.7501C24.7838 33.125 25.6251 32.2838 25.6251 31.25V29.375C25.6251 26.6181 23.3819 24.375 20.6251 24.375Z" fill="#7FB51F"/>
<path d="M29.0624 15.4276L27.5543 15.9638C27.1262 16.1157 26.6793 15.7913 26.6918 15.3369L26.7355 13.7369L25.7593 12.4682C25.4824 12.1082 25.653 11.5826 26.0887 11.4538L27.6243 11.0013L28.5293 9.68068C28.7862 9.30631 29.3387 9.30631 29.5955 9.68068L30.5005 11.0013L32.0362 11.4538C32.4718 11.5819 32.6424 12.1082 32.3655 12.4682L31.3893 13.7369L31.433 15.3369C31.4455 15.7907 30.998 16.1157 30.5705 15.9638L29.0624 15.4276Z" fill="#7FB51F"/>
<path d="M10.9374 15.4276L9.42929 15.9638C9.00116 16.1157 8.55429 15.7913 8.56679 15.3369L8.61054 13.7369L7.63429 12.4682C7.35741 12.1082 7.52804 11.5826 7.96366 11.4538L9.49929 11.0013L10.4043 9.68068C10.6612 9.30631 11.2137 9.30631 11.4705 9.68068L12.3755 11.0013L13.9112 11.4538C14.3468 11.5819 14.5174 12.1082 14.2405 12.4682L13.2643 13.7369L13.308 15.3369C13.3205 15.7907 12.873 16.1157 12.4455 15.9638L10.9374 15.4276Z" fill="#7FB51F"/>
<path d="M20.0001 14.0213L18.212 14.6569C17.7045 14.8375 17.1745 14.4519 17.1895 13.9138L17.2413 12.0169L16.0838 10.5125C15.7557 10.0857 15.9582 9.46255 16.4745 9.31005L18.2951 8.77317L19.3682 7.20755C19.6726 6.76317 20.3282 6.76317 20.6326 7.20755L21.7057 8.77317L23.5263 9.31005C24.0426 9.46255 24.2451 10.0857 23.917 10.5125L22.7595 12.0169L22.8113 13.9138C22.8263 14.4519 22.2957 14.8375 21.7888 14.6569L20.0001 14.0213Z" fill="#7FB51F"/>
</g>
<defs>
<clipPath id="clip0_379_9303">
<rect width="40" height="40" fill="white"/>
</clipPath>
</defs>
</svg>

<svg xmlns="http://www.w3.org/2000/svg" width="40" height="40" fill="none"><g clip-path="url(#a)"><path fill="#015637" d="M.279 28.952c-.353-3.012-.402-5.968.031-8.642.532-3.288 1.921-6.946 3.439-10.218 2.966-6.394 8.275-8.63 14.74-9.64C27.501-.952 39.922.453 40 11.36c-.452 3.9-3.435 14.743-13.506 15.57-3.33.274-4.575 3.618-6.042 7.447C16.592 44.45 1.57 39.979.279 28.952" opacity=".1"/><path fill="#7FB51F" d="M15.519 24.463a6.23 6.23 0 0 0-2.394 4.912v1.875h-3.75A1.87 1.87 0 0 1 7.5 29.375v-1.25a4.37 4.37 0 0 1 4.375-4.375h1.25c.888 0 1.706.262 2.394.712M27.5 23.75a2.813 2.813 0 1 0 0-5.625 2.813 2.813 0 0 0 0 5.625"/><path fill="#7FB51F" d="M12.5 23.75a2.813 2.813 0 1 0 0-5.625 2.813 2.813 0 0 0 0 5.625m20 4.375v1.25a1.87 1.87 0 0 1-1.875 1.875h-3.75v-1.875a6.23 6.23 0 0 0-2.394-4.913 4.35 4.35 0 0 1 2.394-.712h1.25a4.37 4.37 0 0 1 4.375 4.375M20 24.375a3.438 3.438 0 1 0 0-6.875 3.438 3.438 0 0 0 0 6.875"/><path fill="#7FB51F" d="M20.625 24.375h-1.25c-2.757 0-5 2.243-5 5v1.875c0 1.034.841 1.875 1.875 1.875h7.5a1.877 1.877 0 0 0 1.875-1.875v-1.875c0-2.757-2.243-5-5-5m8.437-8.947-1.508.536a.646.646 0 0 1-.862-.627l.043-1.6-.976-1.269a.647.647 0 0 1 .33-1.014L27.624 11l.905-1.32a.646.646 0 0 1 1.067 0L30.5 11l1.536.453a.647.647 0 0 1 .33 1.014l-.977 1.269.044 1.6a.647.647 0 0 1-.863.627zm-18.125 0-1.508.536a.646.646 0 0 1-.862-.627l.044-1.6-.977-1.269a.647.647 0 0 1 .33-1.014L9.499 11l.905-1.32a.646.646 0 0 1 1.066 0l.906 1.32 1.535.453a.647.647 0 0 1 .33 1.014l-.977 1.269.044 1.6a.647.647 0 0 1-.863.627zM20 14.021l-1.788.636a.766.766 0 0 1-1.023-.743l.052-1.897-1.157-1.505a.767.767 0 0 1 .39-1.202l1.821-.537 1.073-1.565a.766.766 0 0 1 1.265 0l1.073 1.565 1.82.537a.767.767 0 0 1 .391 1.202l-1.158 1.505.052 1.897a.766.766 0 0 1-1.022.743z"/></g><defs><clipPath id="a"><path fill="#fff" d="M0 0h40v40H0z"/></clipPath></defs></svg>
